svgs/sharp-regular/tally-3.svg

<svg xmlns="http://www.w3.org/2000/svg" viewBox="0 0 640 512"><!--! Font Awesome Pro 6.6.0 by @fontawesome - https://fontawesome.com License - https://fontawesome.com/license (Commercial License) Copyright 2024 Fonticons, Inc. --><path d="M152 40l0 24 0 384 0 24-48 0 0-24 0-384 0-24 48 0zm128 0l0 24 0 384 0 24-48 0 0-24 0-384 0-24 48 0zM408 64l0 384 0 24-48 0 0-24 0-384 0-24 48 0 0 24z"/></svg>

<svg xmlns="http://www.w3.org/2000/svg" viewBox="0 0 640 512"><!--! Font Awesome Pro 6.5.2 by @fontawesome - https://fontawesome.com License - https://fontawesome.com/license (Commercial License) Copyright 2024 Fonticons, Inc. --><path d="M152 40V64 448v24H104V448 64 40h48zm128 0V64 448v24H232V448 64 40h48zM408 64V448v24H360V448 64 40h48V64z"/></svg>
